icons/svg/beta_20.svg

<?xml version="1.0" encoding="UTF-8"?>
<svg width="20px" height="20px" viewBox="0 0 20 20" version="1.1" xmlns="http://www.w3.org/2000/svg" xmlns:xlink="http://www.w3.org/1999/xlink">
    <!-- Generator: Sketch 59.1 (86144) - https://sketch.com -->
    <title>settings/beta_20</title>
    <desc>Created with Sketch.</desc>
    <g id="Icons-Webex" stroke="none" stroke-width="1" fill="none" fill-rule="evenodd">
        <g id="settings/beta_20" fill="#171B1F">
            <path d="M10,0 C15.5228475,0 20,4.4771525 20,10 C20,15.5228475 15.5228475,20 10,20 C9.72385763,20 9.5,19.7761424 9.5,19.5 C9.5,19.2238576 9.72385763,19 10,19 C14.9705627,19 19,14.9705627 19,10 C19,5.02943725 14.9705627,1 10,1 C5.02943725,1 1,5.02943725 1,10 C1,13.6063604 3.1405565,16.8204867 6.38610517,18.2451741 L6.344,18.226 L6.35023587,18.227324 L6.42360446,18.2442718 L6.5,18.25 C6.77614237,18.25 7,18.0261424 7,17.75 L7,17.75 L7,17.74 L7,7.5 C7,5.90231912 8.24891996,4.59633912 9.82372721,4.50509269 L10,4.5 C11.6568542,4.5 13,5.84314575 13,7.5 C13,8.54438831 12.4663229,9.46412967 11.6567985,10.0013944 C12.4663229,10.5358703 13,11.4556117 13,12.5 C13,14.1568542 11.6568542,15.5 10,15.5 C9.72385763,15.5 9.5,15.2761424 9.5,15 C9.5,14.7238576 9.72385763,14.5 10,14.5 C11.1045695,14.5 12,13.6045695 12,12.5 C12,11.3954305 11.1045695,10.5 10,10.5 C9.72385763,10.5 9.5,10.2761424 9.5,10 C9.5,9.72385763 9.72385763,9.5 10,9.5 C11.1045695,9.5 12,8.6045695 12,7.5 C12,6.3954305 11.1045695,5.5 10,5.5 C8.8954305,5.5 8,6.3954305 8,7.5 L8,7.5 L8,17.8 C8,17.8170458 7.99914701,17.8338924 7.9974814,17.8504994 C7.94542507,18.6316472 7.29492456,19.25 6.5,19.25 C6.3465513,19.25 6.19563426,19.2267912 6.05142172,19.1816353 L6.09957362,19.1957498 C6.06066499,19.1889623 6.02194221,19.1774229 5.9841595,19.1608376 C2.37839904,17.5780293 0,14.0067735 0,10 C0,4.4771525 4.4771525,0 10,0 Z" id="fill"></path>
        </g>
    </g>
</svg>

<svg width="20" height="20" xmlns="http://www.w3.org/2000/svg"><path d="M10 0c5.523 0 10 4.477 10 10s-4.477 10-10 10a.5.5 0 110-1 9 9 0 10-3.614-.755l-.042-.019.006.001.074.017.076.006a.5.5 0 00.5-.5V7.5a3 3 0 012.824-2.995L10 4.5a3 3 0 011.657 5.501A3 3 0 0110 15.5a.5.5 0 110-1 2 2 0 100-4 .5.5 0 110-1 2 2 0 10-2-2v10.3c0 .017 0 .034-.003.05a1.501 1.501 0 01-1.946 1.332l.049.014a.501.501 0 01-.116-.035A10.001 10.001 0 010 10C0 4.477 4.477 0 10 0z" fill="#171B1F" fill-rule="evenodd"/></svg>
